src/images/logo.svg

<svg xmlns="http://www.w3.org/2000/svg" viewBox="0 0 845 1024" class="logo"><g fill="#92aabf" style="transform:translateY(23%)"><path d="M300.543-225.999c-24.716.881-63.617 1.131-83.902 1.202-7.864.028-12.93.028-13.288.028h-1.426c-16.851 0-31.453.029-43.874.072-37.068.13-54.706.387-54.706.387-38.096.557-59.366 27.54-59.366 27.54-17.517 22.222-20.994 29.692-21.15 93.412l-.128 51.58 178.671 1.04 184.309-.258-.09-22.54-.29-72.576c-.141-3.155.928-31.607-19.227-55.151-20.155-23.544-65.533-24.736-65.533-24.736zM546.391-224.28s-45.383.604-65.695 23.886c-20.312 23.282-19.433 51.746-19.596 54.9l-.004.351-.008.002-.001.024h.01l-.772 72.192-.24 22.537 184.298 2.649 178.673 1.276.218-51.579c.268-63.72-3.16-71.234-20.526-93.682 0 0-21.09-27.258-59.18-28.309 0 0-31.873-.879-99.978-1.756 0 0-62.549-.805-97.199-2.49zM207.502 358.434c2.214 0 7.07 2.239 16.997 7.665 36.45 19.928 81.86 35.222 122.457 41.906 6.842 1.127 14.813 2.482 17.644 2.844l5.16.885-10.841 33.737c-5.853 18.448-14.224 45.227-18.6 59.335-15.78 50.88-25.58 76.048-59.95 93.1-10.353 5.136-20.074 7.227-33.657 7.456-.745.013-1.466.019-2.166.019-13.242 0-18.634-2.19-26.231-4.261-30.742-8.378-49.235-28.169-57.898-62.766h.002l.003-.002c-4.333-16.882-5.07-55.229-1.58-75.375 4.294-24.792 16.99-54.62 37.225-87.992 4.685-7.727 9.183-14.888 10.164-16.07.26-.314.667-.48 1.27-.48zM56.39 23.568c-19.062 0-32.576.31-32.88.902-1.123 2.19 1.839 35.693 5.107 56.238 8.34 52.43 25.669 102.117 50.737 144.724 5.916 10.055 10.817 18.782 10.81 19.449-.005.5-4.164 7.345-9.49 15.243C42.677 316.482 15.644 394.521 9.6 464.82h.006c-5.28 61.135 5.647 124.24 30.266 174.529 36.65 74.866 107.941 126.45 190.857 137.623 15.529 2.092 30.307 3.145 44.399 3.145 45.292 0 83.503-10.873 116.789-33.044 44.643-29.736 74.133-78.456 106.8-176.494 25.085-75.279 35.74-99.962 50.7-118.2 14.745-17.978 25.914-24.66 44.61-26.23a85.812 85.812 0 017.185-.305c21.054 0 40.243 7.935 54.78 22.765 17.164 17.511 23.32 35.912 24.452 72.27.888 28.518-1.43 45.009-9.34 67.097-6.667 18.614-12.862 31.359-28.443 59.903-13.291 24.352-16.11 34.169-13.474 47.048 3.723 18.195 11.26 24.455 67.303 55.36l42.78 23.602 8.088-8.59c24.099-25.767 51.03-76.994 64.072-121.734 21.315-73.125 21.745-160.162 1.046-221.4-17.355-51.349-46.09-92.66-87.114-124.916l-6.947-5.57 11.814-14.388c30.209-36.544 50.35-73.379 67.748-122.532 11.77-33.25 19.013-67.334 23.63-112.303l1.281-11.325-54.847-.548c-10.058-.101-18.621-.17-25.955-.17-38.005 0-43.012 1.838-52.176 10.559-6.405 6.095-14.274 21.074-25.149 47.432-17.83 43.213-40.709 70.805-78.31 94.917-41.34 26.51-97.09 40.558-160.183 40.558-1.423 0-2.849-.007-4.278-.022-124.53-1.245-209.609-51.261-244.153-143.324-3.132-8.349-6.63-17.255-7.968-20.087-1.275-2.696-3.722-8.055-5.385-11.724-1.6-3.532-5.867-9.437-9.374-12.932-10.856-10.82-15.89-11.496-77.072-12.108-7.674-.077-14.998-.114-21.647-.114z"/></g></svg>

<?xml version="1.0" encoding="utf-8"?>
<svg viewBox="0 0 410.8 500" width="410.8" height="500" xmlns="http://www.w3.org/2000/svg">
  <g>
    <g id="layer1" fill="#92aabf" transform="matrix(0.488157, 0, 0, 0.488157, 1.346269, 113.751717)">
      <path id="eye2" d="M 528.858 -220.498 C 528.858 -220.498 501.008 -223.789 480.696 -200.507 C 460.384 -177.225 461.263 -148.761 461.1 -145.608 L 461.096 -145.256 L 461.088 -145.254 C 461.087 -145.247 461.087 -145.239 461.087 -145.23 L 461.096 -145.23 L 460.325 -73.038 L 460.084 -50.501 L 644.383 -51.009 L 823.475 -50.365 C 824.052 -58.147 824.963 -98.18 824.957 -98.155 C 825.225 -161.874 817.588 -175.073 800.221 -197.521 C 800.221 -197.521 781.659 -219.095 743.569 -220.146 C 743.569 -220.146 711.695 -221.025 643.59 -221.902 C 643.59 -221.902 563.508 -220.76 528.858 -220.498 Z"/>
      <path id="ds" d="M 207.502 358.434 C 209.716 358.434 214.573 360.673 224.499 366.099 C 260.949 386.027 306.359 401.321 346.956 408.005 C 353.798 409.132 361.769 410.487 364.6 410.849 L 369.76 411.734 L 358.919 445.471 C 353.066 463.919 344.695 490.698 340.319 504.806 C 324.539 555.686 314.739 580.854 280.368 597.906 C 270.016 603.042 260.295 605.133 246.712 605.362 C 245.967 605.375 245.246 605.381 244.546 605.381 C 231.304 605.381 225.912 603.19 218.315 601.12 C 187.573 592.742 169.08 572.951 160.417 538.354 L 160.419 538.354 L 160.422 538.352 C 156.089 521.47 155.351 483.123 158.841 462.977 C 163.136 438.185 175.832 408.357 196.067 374.985 C 200.752 367.258 205.25 360.097 206.231 358.914 C 206.491 358.601 206.898 358.434 207.502 358.434 Z M 56.39 23.568 C 37.328 23.568 23.814 23.878 23.51 24.47 C 22.387 26.661 25.349 60.163 28.617 80.708 C 36.957 133.138 54.286 182.825 79.354 225.432 C 85.27 235.487 90.171 244.214 90.164 244.881 C 90.159 245.381 86 252.226 80.675 260.124 C 42.676 316.482 15.643 394.521 9.599 464.82 L 9.602 464.82 L 9.605 464.82 C 4.326 525.955 15.252 589.059 39.871 639.349 C 76.522 714.215 147.812 765.799 230.728 776.972 C 246.257 779.064 261.035 780.117 275.127 780.117 C 320.419 780.117 358.63 769.244 391.916 747.073 C 436.559 717.338 466.049 668.617 498.717 570.579 C 523.801 495.3 534.455 470.617 549.416 452.378 C 564.161 434.401 575.33 427.72 594.027 426.148 C 596.443 425.945 598.839 425.844 601.211 425.844 C 622.265 425.844 641.454 433.779 655.99 448.609 C 673.155 466.12 679.311 484.521 680.443 520.879 C 681.331 549.397 679.014 565.888 671.103 587.976 C 664.436 606.59 658.241 619.335 642.66 647.879 C 629.369 672.231 626.551 682.048 629.186 694.927 C 632.909 713.122 640.446 719.382 696.489 750.286 L 739.268 773.889 L 747.357 765.3 C 771.456 739.532 798.388 688.305 811.429 643.565 C 832.744 570.44 833.174 483.403 812.475 422.164 C 795.12 370.816 766.386 329.504 725.361 297.249 L 718.414 291.678 L 730.228 277.291 C 760.437 240.747 780.578 203.912 797.976 154.759 C 809.745 121.508 816.989 87.425 821.607 42.456 L 822.887 31.131 L 768.04 30.583 C 757.982 30.482 749.419 30.414 742.085 30.414 C 704.08 30.414 699.073 32.251 689.909 40.972 C 683.504 47.067 675.635 62.046 664.76 88.404 C 646.929 131.617 624.051 159.209 586.451 183.321 C 545.111 209.831 489.359 223.879 426.267 223.879 C 424.844 223.879 423.418 223.872 421.989 223.857 C 297.458 222.612 212.38 172.596 177.836 80.533 C 174.704 72.184 171.206 63.278 169.868 60.446 C 168.593 57.75 166.146 52.391 164.483 48.722 C 162.883 45.19 158.616 39.285 155.109 35.79 C 144.253 24.97 139.218 24.294 78.037 23.682 C 70.363 23.605 63.039 23.568 56.39 23.568 Z"/>
      <path id="path-1" d="M 87.648 -51.769 C 87.648 -51.769 59.798 -48.478 39.486 -71.76 C 19.174 -95.042 20.053 -123.506 19.89 -126.659 L 19.886 -127.011 L 19.878 -127.013 C 19.877 -127.02 19.877 -127.028 19.877 -127.037 L 19.886 -127.037 L 19.115 -199.229 L 18.874 -221.766 L 203.173 -221.258 L 382.265 -221.902 C 382.842 -214.12 383.753 -174.087 383.747 -174.112 C 384.015 -110.393 376.378 -97.194 359.011 -74.746 C 359.011 -74.746 340.449 -53.172 302.359 -52.121 C 302.359 -52.121 270.485 -51.242 202.38 -50.365 C 202.38 -50.365 122.298 -51.507 87.648 -51.769 Z" transform="matrix(-1, 0, 0, -1, 402.627823, -272.266998)"/>
    </g>
  </g>
</svg>
